!!!COM: Hugo Wolf
!!!CNT: Deutscher
!!!TXO: Deutsche 
!!!OTL: Wie Sollt Ich Heiter Bleiben
!!!ODT: 1889/01/23
!!!ONM: No. 45
!!!LYR: Johann Wolfgang von Goethe
!!!ENC: Brian Bice
!!!YOR: 45 Songs on Poems of Goethe and Eichendorff, Dover Publications, 1995
!!NB: Vocal melody and text only encoded.
**kern	**silbe
*clefG2	*
*k[b-e-a-d-]	*
*M6/8	*
=5	=5
8r	.
8r	.
{8dd-	{Wie
4cc	sollt
8dd-	ich
=6	=6
4cc	hei-
8a-	-ter
8a-	blei-
8g	|
8f	-ben,
=7	=7
8r	.
8r	.
8f	ent-
4en	-fernt
8f	von
=8	=8
4en	Tag
8f	und
4.cc}	Licht?}
=9	=9
4r	.
8r	.
{8e-	{Nun
8e-	a-
8e-	-ber
=10	=10
4e-	will
8e-	ich
8a-	schrei-
8g	|
8f#	-ben,
=11	=11
8r	.
8r	.
8a-	und
4g	trin-
8cc	-ken
=12	=12
4b-	mag
8an	ich
4.g}	nicht.}
=14	=14
4r	.
8r	.
{8ddn	{Wenn
8ddn	sie
8cc	mich
=15	=15
4bn	an
8ddn	sich
4ddn	lock-
8f	-te,
=16	=16
8r	.
8r	.
8f	war
4ddn	Re-
8cc	-de
=17	=17
8bn	nicht
8cc	|
8ddn	im
4.f}	Brauch,}
=18	=18
4r	.
8r	.
{8e-	{und
8e-	wie
8f	die
=19	=19
4e-	Zun-
8a-	-ge
8a-	stock-
8g	|
8f#	-te
=20	=20
8r	.
8r	.
8a-	so
4g	sockt
8a-	die
=21	=21
4g	Fe-
8f	-der
4.en}	auch.}
=23	=23
8r	.
8r	.
{8b-	{Nur
4b-	zu!
8b-	ge-
=24	=24
8a-	-lieb-
8g	|
8f	-ter
4en	Schen-
8g	-ke,
=25	=25
8r	.
8r	.
8g	den
4a-	Be-
8b-	-cher
=26	=26
8a-	fu2l-
8g	|
8f	-le
4.cc}	still!}
=27	=27
8r	.
8r	.
{8a-	{Ich
4a-	sa-
8a-	-ge
=28	=28
4.a-	nur:
8r	.
8r	.
8a-	Ge-
=29	=29
2.ff	-den-
=30	=30
4.cc	-ke!
8r	.
8r	.
8dd-	Schon
=31	=31
4cc	weiss
8a-	man,
8g	was
8a-	|
8b-	ich
=32	=32
(4cc	will,
8f)}	|}
8r	.
8r	.
{8f	{schon
=33	=33
4g-	weiss
8cc	man,
8r	.
8cc	was
8cc	ich
=34	=34
[4.an	will.
4an]}	|}
8r	.
*-	*-
